src/travel-places/transport-ground/1F69E.svg

<?xml version="1.0" encoding="UTF-8"?>
<svg id="emoji" xmlns="http://www.w3.org/2000/svg" viewBox="0 0 72 72">
  <g id="grid">
    <path d="m68,4v64H4V4h64m4-4H0v72h72V0Z" fill="#b3b3b3"/>
    <path d="m12.923,10.9583h46.1539c1.0621,0,1.9231.861,1.9231,1.9231h0v46.1538c0,1.0621-.861,1.9231-1.9231,1.9231H12.9231c-1.0621,0-1.9231-.861-1.9231-1.9231h0V12.8813c0-1.062.861-1.923,1.923-1.923h0Z" fill="none" stroke="#00a5ff" stroke-miterlimit="10" stroke-width=".1"/>
    <rect x="16" y="4" width="40" height="64" rx="2.2537" ry="2.2537" fill="none" stroke="#00a5ff" stroke-miterlimit="10" stroke-width=".1"/>
    <rect x="4" y="16" width="64" height="40" rx="2.2537" ry="2.2537" fill="none" stroke="#00a5ff" stroke-miterlimit="10" stroke-width=".1"/>
    <circle cx="36" cy="36" r="29" fill="none" stroke="#00a5ff" stroke-miterlimit="10" stroke-width=".1"/>
  </g>
  <g id="color">
    <polygon points="4.1698 33.447 3.9638 54.8894 67.7106 54.9661 68.0175 23.0543 49.9137 10.3203 29.0483 24.9721 20.9936 17.6079 4.1698 33.447" fill="#fff"/>
    <rect x="22.0868" y="36.0991" width="45.2778" height="12.0246" fill="#b1cc33"/>
    <rect x="34.9185" y="32.7702" width="6.3408" height="10.6464" rx="1.0578" ry="1.0578" fill="#92d3f5"/>
    <rect x="21.9628" y="32.7702" width="6.3408" height="10.6464" rx="1.0578" ry="1.0578" fill="#92d3f5"/>
    <rect x="47.9287" y="32.7702" width="6.3408" height="10.6464" rx="1.0578" ry="1.0578" fill="#92d3f5"/>
    <rect x="60.9389" y="32.7702" width="6.3408" height="10.6464" rx="1.0578" ry="1.0578" fill="#92d3f5"/>
    <path d="m34.31,51.6463c.0114,2.3441-1.8796,4.2537-4.2237,4.2652-2.3441.0114-4.2537-1.8796-4.2652-4.2237,0-.0138,0-.0276,0-.0414" fill="#d0cfce"/>
    <path d="m63.2766,51.6463c0,2.3442-1.9003,4.2445-4.2445,4.2445s-4.2445-1.9003-4.2445-4.2445" fill="#d0cfce"/>
    <polygon points="16 22 21 17 26 22 24 23 22 21 20 23 18 22 15 24 14 23 16 22" fill="#92d3f5"/>
    <polygon points="42.167 15.429 50.083 9 58 15.429 54.833 16.714 51.667 14.143 48.5 16.714 45.333 15.429 40.583 18 39 16.714 42.167 15.429" fill="#92d3f5"/>
    <rect x="22.7567" y="47.5836" width="43.9381" height="4.0628" fill="#3f3f3f"/>
  </g>
  <g id="line">
    <line x1="4" y1="56" x2="68" y2="56" fill="none" stroke="#000" stroke-linecap="round" stroke-linejoin="round" stroke-width="2"/>
    <polyline points="68 22 50 9 29 24 21 16 4 32" fill="none" stroke="#000" stroke-linecap="round" stroke-linejoin="round" stroke-width="2"/>
    <path d="m23.71,50.6463h-.82c-.49-.0014-.887-.3983-.8884-.8883v-20.9344c.0031-1.0462.8505-1.8936,1.8967-1.8967h41.4847c1.0464.0029,1.8939.8503,1.897,1.8967v20.9347c-.0014.4898-.3982.8866-.888.888h-.8291" fill="none" stroke="#000" stroke-linecap="round" stroke-miterlimit="10" stroke-width="2.0737"/>
    <line x1="52.532" y1="50.6463" x2="36.4059" y2="50.6463" fill="none" stroke="#000" stroke-linecap="round" stroke-miterlimit="10" stroke-width="2.0737"/>
    <path d="m34.31,51.8984c.0114,2.3441-1.8796,4.2537-4.2237,4.2652-2.3441.0114-4.2537-1.8796-4.2652-4.2237,0-.0138,0-.0276,0-.0414" fill="none" stroke="#000" stroke-linecap="round" stroke-miterlimit="10" stroke-width="2.0737"/>
    <path d="m63.2766,51.6463c0,2.3442-1.9003,4.2445-4.2445,4.2445s-4.2445-1.9003-4.2445-4.2445" fill="none" stroke="#000" stroke-linecap="round" stroke-miterlimit="10" stroke-width="2.0737"/>
    <rect x="34.9185" y="32.7804" width="6.3408" height="10.6464" rx="1.0578" ry="1.0578" fill="none" stroke="#000" stroke-linecap="round" stroke-miterlimit="10" stroke-width="2.0737"/>
    <rect x="21.9628" y="32.7804" width="6.3408" height="10.6464" rx="1.0578" ry="1.0578" fill="none" stroke="#000" stroke-linecap="round" stroke-miterlimit="10" stroke-width="2.0737"/>
    <rect x="47.7568" y="32.8587" width="6.3408" height="10.6464" rx="1.0578" ry="1.0578" fill="none" stroke="#000" stroke-linecap="round" stroke-miterlimit="10" stroke-width="2.0737"/>
    <rect x="60.9389" y="32.8587" width="6.3408" height="10.6464" rx="1.0578" ry="1.0578" fill="none" stroke="#000" stroke-linecap="round" stroke-miterlimit="10" stroke-width="2.0737"/>
    <line x1="20.9448" y1="47.5655" x2="68.3129" y2="47.5655" fill="none" stroke="#000" stroke-linecap="round" stroke-miterlimit="10" stroke-width="1.9699"/>
  </g>
</svg>

<svg id="emoji" viewBox="0 0 72 72" xmlns="http://www.w3.org/2000/svg">
  <g id="grid">
    <path fill="#b3b3b3" d="M68,4V68H4V4H68m4-4H0V72H72V0Z"/>
    <path fill="none" stroke="#00a5ff" stroke-miterlimit="10" stroke-width="0.1" d="M12.923,10.9583H59.0769A1.9231,1.9231,0,0,1,61,12.8814V59.0352a1.9231,1.9231,0,0,1-1.9231,1.9231H12.9231A1.9231,1.9231,0,0,1,11,59.0352V12.8813A1.923,1.923,0,0,1,12.923,10.9583Z"/>
    <rect x="16" y="4" rx="2.2537" ry="2.2537" width="40" height="64" fill="none" stroke="#00a5ff" stroke-miterlimit="10" stroke-width="0.1"/>
    <rect x="16" y="4" rx="2.2537" ry="2.2537" width="40" height="64" transform="translate(72) rotate(90)" fill="none" stroke="#00a5ff" stroke-miterlimit="10" stroke-width="0.1"/>
    <circle cx="36" cy="36" r="29" fill="none" stroke="#00a5ff" stroke-miterlimit="10" stroke-width="0.1"/>
  </g>
  <g id="color">
    <rect x="22.0868" y="36.0991" width="45.2778" height="12.0246" fill="#b1cc33"/>
    <rect x="34.9185" y="32.7702" rx="1.0578" ry="1.0578" width="6.3408" height="10.6464" fill="#92d3f5"/>
    <rect x="21.9628" y="32.7702" rx="1.0578" ry="1.0578" width="6.3408" height="10.6464" fill="#92d3f5"/>
    <rect x="47.9287" y="32.7702" rx="1.0578" ry="1.0578" width="6.3408" height="10.6464" fill="#92d3f5"/>
    <rect x="60.9389" y="32.7702" rx="1.0578" ry="1.0578" width="6.3408" height="10.6464" fill="#92d3f5"/>
    <path fill="#d0cfce" d="M34.31,51.6463a4.2445,4.2445,0,1,1-8.4889,0"/>
    <path fill="#d0cfce" d="M63.2766,51.6463a4.2445,4.2445,0,0,1-8.489,0"/>
    <polygon fill="#92d3f5" points="16 22 21 17 26 22 24 23 22 21 20 23 18 22 15 24 14 23 16 22"/>
    <polygon fill="#92d3f5" points="42.167 15.429 50.083 9 58 15.429 54.833 16.714 51.667 14.143 48.5 16.714 45.333 15.429 40.583 18 39 16.714 42.167 15.429"/>
    <rect x="22.7567" y="47.5836" width="43.9381" height="4.0628" fill="#3f3f3f"/>
  </g>
  <g id="line">
    <line x1="4" x2="68" y1="56" y2="56" stroke="#000" stroke-linecap="round" stroke-linejoin="round" stroke-width="2"/>
    <polyline fill="none" stroke="#000" stroke-linecap="round" stroke-linejoin="round" stroke-width="2" points="68 22 50 9 29 24 21 16 4 32"/>
    <path fill="none" stroke="#000" stroke-linecap="round" stroke-miterlimit="10" stroke-width="2.0737" d="M23.71,50.6463H22.89a.8909.8909,0,0,1-.8884-.8883V28.8236a1.9023,1.9023,0,0,1,1.8967-1.8967H65.383A1.9023,1.9023,0,0,1,67.28,28.8236V49.7583a.8906.8906,0,0,1-.888.888h-.8291"/>
    <line x1="52.532" x2="36.4059" y1="50.6463" y2="50.6463" fill="none" stroke="#000" stroke-linecap="round" stroke-miterlimit="10" stroke-width="2.0737"/>
    <path fill="none" stroke="#000" stroke-linecap="round" stroke-miterlimit="10" stroke-width="2.0737" d="M34.31,51.8984a4.2445,4.2445,0,1,1-8.4889,0"/>
    <path fill="none" stroke="#000" stroke-linecap="round" stroke-miterlimit="10" stroke-width="2.0737" d="M63.2766,51.6463a4.2445,4.2445,0,0,1-8.489,0"/>
    <rect x="34.9185" y="32.7804" rx="1.0578" ry="1.0578" width="6.3408" height="10.6464" fill="none" stroke="#000" stroke-linecap="round" stroke-miterlimit="10" stroke-width="2.0737"/>
    <rect x="21.9628" y="32.7804" rx="1.0578" ry="1.0578" width="6.3408" height="10.6464" fill="none" stroke="#000" stroke-linecap="round" stroke-miterlimit="10" stroke-width="2.0737"/>
    <rect x="47.7568" y="32.8587" rx="1.0578" ry="1.0578" width="6.3408" height="10.6464" fill="none" stroke="#000" stroke-linecap="round" stroke-miterlimit="10" stroke-width="2.0737"/>
    <rect x="60.9389" y="32.8587" rx="1.0578" ry="1.0578" width="6.3408" height="10.6464" fill="none" stroke="#000" stroke-linecap="round" stroke-miterlimit="10" stroke-width="2.0737"/>
    <line x1="20.9448" x2="68.3129" y1="47.5655" y2="47.5655" fill="none" stroke="#000" stroke-linecap="round" stroke-miterlimit="10" stroke-width="1.9699"/>
  </g>
</svg>
